X: 254
T: Hai wawa
L: 1/16
M: 2/4
K: F
d2 d e f2 A c [I:setbarnb 1]| 
d e d cd4 | 
c d f2 f d c A | 
G2> A2G4 | 
f2 f d f d c A | 
G A c A G F D C | 
F2F4c2 | 
A2> G2 E2 D2 | 
C6D2 | 
C8 |]

@@@ Tune index: 9128
